packages/components/src/images/icons/pin.svg

<svg height="16" viewBox="0 0 16 16" width="16" xmlns="http://www.w3.org/2000/svg"><path d="m14 4.15c0 .35898509-.2910149.65-.65.65h-9.35c-.35438271 0-.64725823.26334362-.69360983.60501415l-.00639017.09498585v5c0 .3543827.26334362.6472582.60501415.6936098l.09498585.0063902h9.35c.3589851 0 .65.2910149.65.65s-.2910149.65-.65.65h-9.35c-1.1045695 0-2-.8954305-2-2v-5c0-1.1045695.8954305-2 2-2h9.35c.3589851 0 .65.29101491.65.65zm-8 2.85c.55228475 0 1 .44771525 1 1s-.44771525 1-1 1-1-.44771525-1-1 .44771525-1 1-1zm3 0c.55228475 0 1 .44771525 1 1s-.44771525 1-1 1-1-.44771525-1-1 .44771525-1 1-1zm3 0c.5522847 0 1 .44771525 1 1s-.4477153 1-1 1-1-.44771525-1-1 .4477153-1 1-1zm0 .5c.2761424 0 .5.22385763.5.5s-.2238576.5-.5.5-.5-.22385763-.5-.5.2238576-.5.5-.5z" fill-rule="evenodd"/></svg>

<?xml version="1.0" encoding="UTF-8"?>
<svg width="16px" height="16px" viewBox="0 0 16 16" version="1.1" xmlns="http://www.w3.org/2000/svg" xmlns:xlink="http://www.w3.org/1999/xlink">
    <!-- Generator: Sketch 63.1 (92452) - https://sketch.com -->
    <title>Icon/Features/PIN</title>
    <desc>Created with Sketch.</desc>
    <g id="Icon/Features/PIN" stroke="none" stroke-width="1" fill="none" fill-rule="evenodd">
        <path d="M14,4.15 C14,4.50898509 13.7089851,4.8 13.35,4.8 L4,4.8 L4,4.8 C3.64561729,4.8 3.35274177,5.06334362 3.30639017,5.40501415 L3.3,5.5 L3.3,10.5 C3.3,10.8543827 3.56334362,11.1472582 3.90501415,11.1936098 L4,11.2 L13.35,11.2 C13.7089851,11.2 14,11.4910149 14,11.85 C14,12.2089851 13.7089851,12.5 13.35,12.5 L4,12.5 L4,12.5 C2.8954305,12.5 2,11.6045695 2,10.5 L2,5.5 C2,4.3954305 2.8954305,3.5 4,3.5 L13.35,3.5 C13.7089851,3.5 14,3.79101491 14,4.15 Z M6,7 C6.55228475,7 7,7.44771525 7,8 C7,8.55228475 6.55228475,9 6,9 C5.44771525,9 5,8.55228475 5,8 C5,7.44771525 5.44771525,7 6,7 Z M9,7 C9.55228475,7 10,7.44771525 10,8 C10,8.55228475 9.55228475,9 9,9 C8.44771525,9 8,8.55228475 8,8 C8,7.44771525 8.44771525,7 9,7 Z M12,7 C12.5522847,7 13,7.44771525 13,8 C13,8.55228475 12.5522847,9 12,9 C11.4477153,9 11,8.55228475 11,8 C11,7.44771525 11.4477153,7 12,7 Z M12,7.5 C12.2761424,7.5 12.5,7.72385763 12.5,8 C12.5,8.27614237 12.2761424,8.5 12,8.5 C11.7238576,8.5 11.5,8.27614237 11.5,8 C11.5,7.72385763 11.7238576,7.5 12,7.5 Z" id="Shape" ></path>
    </g>
</svg>
